X:1
T:A Major Oliver Brownson, 1779
T:Charles Wesley, 1750 66. 66. 88.
T:Jubilee
T:Transcribed from Brownson's Select Harmony, 1783.
%%score [ 1 2 3 4 ]
L:1/8
M:4/4
K:A
V:1 treble nm="Treble" snm="Tr."
V:2 treble nm="Counter" snm="C."
V:3 treble-8 nm="Tenor" snm="T."
V:4 bass nm="Bass" snm="B."
V:1
 c4 c3 B | A2 A2 G4- | G2 z2 G4 | G3 B B2 B2 | c8 | z4 B4 | A2 c2 B2 B2 | B8 | B4 e2 e2 | %9
w: 1.~Blow ye the|trum- pet, blow,~|_ Blow|ye the trum- pet,|blow,|The|glad- ly so- lemn|sound:|Let all the|
w: 2.~Je- sus, our|great High Priest,~|_ Je-|sus, our great High|Priest,|Has|full a- tone- ment|made:|Ye wea- ry|
 e2 e2 c2 c2 | f2 f2 e2 d2 | e8 |: z4 B4 | B2 B2 c2 c2 | e2 f2 B2 B2 | (c4 cdcB | A2) A2 c2 A2 | %17
w: na- tions know To|earth's re- mo- test|bound;|The|year of ju- bi-|lee is come; Re-|turn,~ _ _ _ _|_ ye ran- somed|
w: spi- rits, rest; Ye|mourn- ful souls, be|glad:||||||
 G6 G2 | A8 :| %19
w: sin- ners,|home.|
w: ||
V:2
 E8 | E2 F2 E2 E2 | E8- | E3 E E2 E2 | E8 | z4 E4 | E2 F2 F2 F2 | E8 | E4 E2 E2 | E2 E2 E2 F2 | %10
w: 3.~Ex-|tol the Lamb of|God,~|_ the Lamb of|God,|The|all- a- to- ning|Lamb;|Re- demp- tion|through his blood Through-|
w: 4.~Ye|slaves of sin and|hell,~|_ of sin and|hell,|Your|li- ber- ty re-|ceive;|And safe in|Je- sus dwell, And|
 F2 F2 G2 A2 | G8 |: z4 E4 | E2 E2 E2 E2 | E2 D2 E2 E2 | E8- | E2 E2 E2 F2 | E6 D2 | C8 :| %19
w: out the world pro-|claim.|The|year of ju- bi-|lee is come; Re-|turn,~|_ ye ran- somed|sin- ners,|home.|
w: blest in Je- sus|live~–||||||||
V:3
 A4 A3 B | c2 d2 B4- | B2 z2 B4 | B3 B G2 E2 | A8 | z4 B4 | c2 c2 d2 d2 | e8 | B4 c2 c2 | %9
w: 5.~Ye who have|sold for nought~|_ Ye|who have sold for|nought|Your|he- ri- tage a-|bove,|Re- ceive it|
w: 6.~The gos- pel|trum- pet hear,~|_ The|gos- pel trum- pet|hear,|The|news of heav'n- ly|grace;|And saved from|
 B2 e2 e2 c2 | d2 c2 B2 A2 | B8 |: z4 e4 | e2 e2 c2 A2 | AG F2 E2 G2 | (A4 ABAB | c2) c2 A2 d2 | %17
w: back un- bought, The|gift of Je- sus'|love.|The|year of ju- bi-|lee * is come; Re-|turn,~ _ _ _ _|_ ye ran- somed|
w: earth ap- pear Be-|fore you Sa- vior's|face.||||||
 B4 (cB A2) | A8 :| %19
w: sin- ners, * *|home.|
w: ||
V:4
 A,8 | A,2 D,2 E,2 E,2 | E,8- | E,3 E, E,2 E,2 | A,,8 | z4 E,4 | A,2 F,2 B,2 B,2 | E,8 | %8
 E,4 C,2 C,2 | E,2 E,2 E,2 A,2 | B,2 A,2 G,2 F,2 | E,8 |: z4 E,4 | E,2 E,2 A,2 C2 | %14
 CB, A,2 G,2 E,2 | (A,4 A,G,F,G, | A,2) A,2 A,2 D,2 | E,6 E,2 | A,,8 :| %19

